packages/core/src/svgs/mina.svg

<svg width="24" height="24" viewBox="0 0 24 24" fill="none" xmlns="http://www.w3.org/2000/svg">
<g clip-path="url(#clip0_31_13885)">
<path d="M0 0H24V24H0V0Z" fill="url(#paint0_linear_31_13885)"/>
<path fill-rule="evenodd" clip-rule="evenodd" d="M12.0002 17.9977C12.7734 18.0294 13.0078 17.3334 13.1976 16.7081C13.2435 16.5568 13.2876 16.4115 13.3369 16.2851C14.2014 16.0228 14.7714 15.2724 14.9184 14.1294L15.8805 7.28423C16.2384 7.22637 16.8594 7.33137 17.1431 7.40937V17.5712H18.8574V9.42451C18.8574 8.2888 18.4974 7.42523 17.5716 7.09137V6.61352C17.5716 5.98994 17.0402 5.5708 16.4831 5.5708C15.9259 5.5708 15.4918 5.92052 15.4009 6.55694L15.3315 6.96152C14.3209 7.24866 13.7989 8.16494 13.6271 9.4918L12.8462 15.9388C12.5676 15.9927 12.2839 16.0162 12.0002 16.0087C11.7165 16.0162 11.4328 15.9927 11.1542 15.9388L10.3734 9.4918C10.2019 8.16494 9.6495 7.2568 8.6385 6.96923L8.59992 6.55694C8.50864 5.92052 8.07407 5.57123 7.51735 5.57123C6.96021 5.57123 6.42878 5.98994 6.42878 6.61352V7.0948C5.50307 7.42866 5.14307 8.29266 5.14307 9.42837V17.5712H6.85735V7.44837C7.26107 7.31423 7.69735 7.25552 8.11992 7.32409L9.08207 14.1298C9.22907 15.2724 9.79907 16.0228 10.6635 16.2855C10.7132 16.4115 10.7569 16.5568 10.8028 16.7081C10.9926 17.3338 11.2271 18.0289 12.0002 17.9977ZM12.0002 16.4968C11.744 16.5005 11.488 16.4814 11.2352 16.4398C11.2991 16.9382 11.4152 17.5027 12.0002 17.5768C12.5852 17.5022 12.7014 16.9382 12.7652 16.4398C12.5124 16.4814 12.2564 16.5005 12.0002 16.4968ZM6.42878 17.1422H5.57164V9.42751C5.57164 8.46494 5.96678 7.93309 6.42878 7.64637V17.1422ZM8.6385 7.42052C9.31521 7.66823 9.70992 8.28194 9.85564 9.42751L10.5992 15.7404C9.86121 15.2047 9.74678 15.0692 9.62207 14.0942L8.6385 7.42052ZM6.85735 6.96923V6.61652C6.85735 6.16609 7.2225 5.99937 7.51735 5.99937C7.73464 5.99937 8.05178 6.1108 8.11992 6.5878L8.14307 6.85694C7.7145 6.80123 7.27478 6.86766 6.85735 6.96923ZM17.5716 17.1427H18.4288V9.42751C18.4288 8.46494 18.0336 7.88723 17.5716 7.60052V17.1427ZM15.3315 7.4098C14.6552 7.65752 14.2905 8.28237 14.1444 9.42794L13.4012 15.7408C14.1392 15.2051 14.2536 15.0697 14.3784 14.0947L15.3315 7.4098ZM17.1431 6.93966V6.61652C17.1431 6.16609 16.7779 5.99937 16.4831 5.99937C16.2658 5.99937 15.9486 6.1108 15.8805 6.5878L15.8269 6.85952C16.2669 6.80667 16.7128 6.83382 17.1431 6.93966Z" fill="white"/>
</g>
<defs>
<linearGradient id="paint0_linear_31_13885" x1="13.1156" y1="-0.416571" x2="12.5083" y2="21.0159" gradientUnits="userSpaceOnUse">
<stop stop-color="#C2E0F4"/>
<stop offset="0.394" stop-color="#E37B44"/>
<stop offset="0.561" stop-color="#CE5937"/>
<stop offset="1" stop-color="#8E7DF2"/>
</linearGradient>
<clipPath id="clip0_31_13885">
<rect width="24" height="24" fill="white"/>
</clipPath>
</defs>
</svg>

<svg xmlns="http://www.w3.org/2000/svg" width="24" height="24" fill="none" viewBox="0 0 24 24"><g clip-path="url(#a)"><path fill="url(#b)" d="M0 0h24v24H0z"/><path fill="#fff" fill-rule="evenodd" d="M12 17.998c.773.031 1.008-.665 1.198-1.29.045-.151.09-.296.139-.423.864-.262 1.434-1.013 1.581-2.156l.963-6.845c.357-.058.978.047 1.262.125v10.162h1.714V9.425c0-1.136-.36-2-1.285-2.334v-.477c0-.624-.532-1.043-1.089-1.043s-.991.35-1.082.986l-.07.405c-1.01.287-1.532 1.203-1.704 2.53l-.78 6.447a4 4 0 0 1-.847.07 4 4 0 0 1-.846-.07l-.78-6.447c-.172-1.327-.725-2.235-1.735-2.523l-.04-.412c-.09-.636-.525-.986-1.082-.986S6.43 5.99 6.43 6.614v.48c-.926.335-1.286 1.199-1.286 2.334v8.143h1.714V7.448c.404-.134.84-.192 1.263-.124l.962 6.806c.147 1.142.717 1.893 1.582 2.155.05.127.093.272.139.423.19.626.424 1.32 1.197 1.29m0-1.501a4.3 4.3 0 0 1-.765-.057c.064.498.18 1.063.765 1.137.585-.075.701-.639.765-1.137q-.38.061-.765.057m-5.571.645h-.857V9.428c0-.963.395-1.495.857-1.782zm2.21-9.721c.676.247 1.07.86 1.217 2.007l.743 6.312c-.738-.535-.852-.67-.977-1.646zm-1.782-.452v-.352c0-.45.365-.618.66-.618.218 0 .535.112.603.589l.023.269c-.429-.056-.868.01-1.286.112m10.715 10.174h.857V9.428c0-.963-.395-1.54-.857-1.827zm-2.24-9.733c-.677.248-1.042.872-1.188 2.018l-.743 6.313c.738-.536.853-.671.977-1.646zm1.811-.47v-.323c0-.45-.365-.618-.66-.618-.217 0-.534.112-.603.589l-.053.272c.44-.053.886-.026 1.316.08" clip-rule="evenodd"/></g><defs><linearGradient id="b" x1="13.116" x2="12.508" y1="-.417" y2="21.016" gradientUnits="userSpaceOnUse"><stop stop-color="#C2E0F4"/><stop offset=".394" stop-color="#E37B44"/><stop offset=".561" stop-color="#CE5937"/><stop offset="1" stop-color="#8E7DF2"/></linearGradient><clipPath id="a"><path fill="#fff" d="M0 0h24v24H0z"/></clipPath></defs></svg>
